!!!OTL: Die schöne Reiterei (282), S. 596
!!!id: T0472
**kern
*clefG2
*k[f#c#]
*D:
{8d
=1
8d
8d
8e
8f#
=2yy
8g
=3
4a
4a}
=4
{8b
8cc#
8dd
8b
=5
8b
8a
4a}
=6
{8g
8g
8g
8g
=7
8f#
8f#
4f#}
=8
{8e
8e
8a
8a
=9
4d
4d}
=10
{8d
8e
8f#
8g
=11
8a
8a
4a}
=12
{8b
8cc#
8dd
8b
=13
8b
8a
4a}
=14
{8a
8a
8a
8a
=15
8a
8a
4a}
=16
{8d
8e
8f#
8g
=17
4a
4dd
=18
4b
8dd
8b
=19
4a}
4r
=20
{8a
8a
8g
8g
=21
4f#
4f#
=22
4d
4a
=23
4d}
4r
==
*-
!!!minrhy: 8
!!!meters: 2/4 ]  ZZ[9
!!!cut: Die schöne Reiterei (282), S. 596
!!!reg: Luxemburg
!!!trd: Singendes Volk, Esch-Alzette, 1937 posth.
!!!rhy1:   XXXX  X_X_
!!!rhy2: XXXX  XXX_
!!!key: T0472  08  D 2/4 ]  ZZ[9
!!!mod: HEPTATONIK IONISCH]  AMBITUS[8
!!!kad: 553155551
!!!akz: 15_66_43_21_15_66_55_1565_5311_
!!!fot: 'a__b__c__d__av_b__e__aw_cw_
!!!for: 'a__b__b__a__b__b__b__aw_aw_
!!!fok: '/__^d_\__^d_/__^d_-__^a_\__
!! PHRAS[VOLLTAKTIG]
!!!fkt: ???
!!!bem: Diekirch, fff Ordensschwester, 28.12.1934
!! THILL; Mathias
!! PR[41] 2K[6] 2G[14] 3K[5] 3G[2] 4A[5] 4Ü[0] 5A[0] 6K[0] 6G[2]
!! 7K[0] 7G[0] 8A[0] MEHR[0] SI[32] ABS[66] SR[20] SP[12]
!! ST[21] 2k[6] 2g[12] 3k[2] 3g[0] 4d[3] 4ü[0] 5d[5] 6k[0] 6g[0]
!! 7k[0] 7g[0] 8d[0] mehr[0] si[27] dm[+5] sr[18] sp[9]
!! 1F[11] 2F[67] 3F[22] 4F[0] LF[0] 2P[0] 3P[0] 4P[0] TRI[0] DF[3] AB[72]
!! TF[0] U3K[0] U3[0] U4[0] U4Ü[0] U5[6] U6K[0] U6[3] U7K[0] U7[4]
!! N1[25] N2K[0] N2[12] N3K[0] N3[21] N4[15] N4Ü[0] N5[12] N6K[0] N6[1]
!!!n7k: 0] N7[0] O1[0] O2K[0] O2[0] O3K[0] O3[0] HÖ[0
